X:1
T:Title
%%score { ( 1 3 5 ) | ( 2 4 ) }
L:1/8
Q:1/4=138
M:6/4
K:Bb
V:1 treble nm="Grand Piano"
V:3 treble 
V:5 treble 
V:2 bass 
V:4 bass 
V:1
 e6 B4 =B2 | c2 B2 G2 E2 F2 G2 | B6 B6 | B12[K:bass][K:treble] | _A6 G4 F2 | B2 G2 F2 E2 F2 G2 | %6
w: Rober~M.~Hickman * *||||||
 F6 c6 | d12 | e6 B4 =B2 | c2 B2 G2 E2 F2 G2 | B6 _d6 | c12 | f6 .c6 | [GBe]2 E2 G2 B2 A2 B2 | %14
w: ||||||||
 c6 B6 | E12[K:bass] | G6 [FG]6 | G6 _A6 | F6 .E6 | F6 .D6 | [G,CE]4 [B,DF]2 [B,EG]4 [EGB]2 | %21
w: |||||||
 e2- [Ge-]2 [Ge]2 c2- [Ac-]2 [Ac]2 | B12- | [_AB]6- [AB]2 [AB]2 [A=B]2 | %24
w: |||
 [B,_Ac]2 [Ac]2 [Ac]2 z2 [DAc]2 [DAc]2 | [EGc]2 [GB]2 [EGB]2 z2 [Ge]2 [EGe]2 | %26
w: ||
 [Ae]2 [Af]2 [Ae]2 [FBd]4 [EFc]2 | [DFB]6 [CEA]6 | [B,DB]12 | z12 | %30
w: ||||
 e2- [Ge-]2 [Ge]2 e2- [Ge-]2 [Ge]2 | z2 d2 d2 z2 =B2 B2 | [Ge]2 [Ge]2 [Ece]2 [EBd]4 [E_Ac]2 | %33
w: |||
[M:5/4] [EGB]2- [EGB]2- [EGB]6 |[M:1/4] [EGB]2 | %35
w: ||
[M:6/4] [E_Ac]2 [DA=B]2 [EAc]2 [Ece]2 [E_Bd]2 [EAc]2 | %36
w: |
[M:7/4] [EGB]2 [B,EG]2 [B,GB]2 [^Fe]6 [EFA]2 |[M:6/4] [EGB]2 [E^FA]2 [EGB]2 [D_Ac]4 [B,AB]2 | %38
w: ||
 [Ge]12[K:bass] |] %39
w: |
V:2
 E6 B,4 =B,2 | C2 B,2 G,2 E,2 F,2 G,2 | z2 E2 E2 z2 C2 _D2 | %3
 z2[K:treble] [DF]2 [DF]2[K:bass] z2[K:treble] [DF]2 [DF]2 | _A,6 G,4 F,2 | %5
 B,2 G,2 F,2 E,2 F,2 G,2 | z2 B,2 B,2 z2[K:treble] [EF]2 [EF]2 | %7
 z2[K:treble] [F_A]2 [FA]2 B,2 C2 D2 | E6[K:bass] B,4 =B,2 | C2 B,2 G,2 E,2 F,2 G,2 | %10
 z2 E2 E2 z2 E2 E2 | z2 E2 E2 z2[K:treble] [=EG]2 [EG]2 | %12
 z2[K:treble] _A2 A2[K:bass] z2 F2 [=A,,=A,]2 | [B,,B,]2 E,2 G,2 B,2 A,2 B,2 | %14
 z2[K:treble] [DF]2 [DF]2[K:bass] z2 D2 D2 | [E,,E,]12 | [B,E]2 B,2 B,2 z2 =B,2 B,2 | %17
 z2 C2 C2 z2 C2 C2 | B,2 B,2 B,2 z2 C2 C2 | z2 B,2 B,2 z2 =B,2 B,2 | C,4 B,,2 E,4 E,2 | %21
 z2 E2 E2 z2[K:treble] ^F2 F2 | E,4 F,2 G,2 F,2 E,2 | B,4 B,,2 B,,2 D2 D2 | %24
 z2 B,2 [D,B,]2 B,,2 F,2 G,2 | z2 E2 G,2 B,2 B,2 E,2 | [F,C]2 [F,C]2 [F,C]2 F,4 F,2 | F,6 F,6 | %28
 B,,4 C,2 D,4 F,2 | B,2 C2 B,2 _A,2 G,2 F,2 | z2 E2 E2 z2 E2 E2 | z2[K:treble] =B2 B2 G2 G2 G2 | %32
 [C,C]2 [E,C]2 G,2 _A,4 A,2 |[M:5/4] E,2- E,2- E,6 |[M:1/4] E,2 |[M:6/4] _A,2 A,2 A,2 A,2 A,2 A,2 | %36
[M:7/4] E,2 E,2 E,2 [=B,,A,]6 B,,2 |[M:6/4] B,,2 C,2 B,,2 B,,4 B,,2 | [E,B,]12 |] %39
V:3
 x12 | x12 | z2 G2 G2 z2 G2 G2 | z2 _A2 A2[K:bass] z2[K:treble] A2 A2 | x12 | x12 | %6
 z2 D2 D2 z2 A2 A2 | z2 B2 B2 B2 c2 d2 | x12 | x12 | z2 G2 G2 z2 B2 B2 | z2 _A2 A2 z2 B2 B2 | %12
 z2 c2 c2 z2 _A2 [^Fcd]2 | x12 | z2 _A2 A2 z2 F2 F2 | z2[K:bass] B,,2 G,,2 z6 | %16
 z2 E2 E2 =B,2 D2 D2 | [CE]2 E2 E2 [CE]2 E2 E2 | z2 D2 D2 [A,F]2- [A,-EF-]2 [A,EF]2 | %19
 [B,D]2 D2 D2 [G,G]2- [G,-DG-]2 [G,DG]2 | x12 | .G6 .^F6 | [B,G]12 | .D12 | x12 | x12 | x12 | x12 | %28
 x12 | x12 | .G6 .G6 | [Gg]6 d6 | x12 |[M:5/4] x10 |[M:1/4] x2 |[M:6/4] x12 |[M:7/4] x14 | %37
[M:6/4] x12 | z2[K:bass] B,,2 G,,2 .E,,6 |] %39
V:4
 x12 | x12 | [E,,E,]6 [=E,,=E,]6 | [F,,F,]6[K:treble][K:bass] B,,,6[K:treble] | x12 | x12 | %6
 [F,,F,]6 [F,,F,]6[K:treble] | [B,,,B,,]6[K:treble] z6 | x6[K:bass] x6 | x12 | [E,,E,]6 [G,,G,]6 | %11
 [_A,,_A,]6 G,,6[K:treble] | [F,,F,]6[K:treble][K:bass] .[_A,,_A,]6 | x12 | %14
 [B,,B,]6[K:treble][K:bass] [B,,,B,,]6 | x12 | E,6 D,6 | C,6 [F,,F,]6 | D,6 C,6 | B,,6 =B,,6 | %20
 x12 | [E,B,]6 [E,A,]6[K:treble] | x12 | x12 | .F,6 z6 | .E,6 z6 | x12 | x12 | x12 | x12 | %30
 [E,B,]6 [C,C]6 | [D,=B,]6[K:treble] [G,,G,B,]6 | x12 |[M:5/4] x10 |[M:1/4] x2 |[M:6/4] x12 | %36
[M:7/4] x14 |[M:6/4] x12 | x12 |] %39
V:5
 x12 | x12 | x12 | z6[K:bass] B,,6[K:treble] | x12 | x12 | x12 | x12 | x12 | x12 | x12 | z6 G,6 | %12
 x12 | x12 | x12 | x2[K:bass] x10 | x12 | x12 | x12 | x12 | x12 | x12 | x12 | x12 | x12 | x12 | %26
 x12 | x12 | x12 | x12 | x12 | x12 | x12 |[M:5/4] x10 |[M:1/4] x2 |[M:6/4] x12 |[M:7/4] x14 | %37
[M:6/4] x12 | x2[K:bass] x10 |] %39

